X:2914
L:1/8
M:6/8
K:Amin
 a2 b c' b a b2 e e2 a g e c d f e d B c ^G3/2 ^F/ E | A2 B c B A d2 e f e d e a c B2 A A3 A3 | 
 a2 b c' b a b2 e e2 a g e c d f e d B c ^G3/2 ^F/ E | A2 B c B A d2 e f e d e a c B2 A A3 A3 | 
 B2 c d3/2 e/ d e2 ^f g2 a g e2 d2 c c3 c2 e | c g2 e a2 ^f b2 ^g2 e d2 c B2 A A3 A3 | 
 B2 c d3/2 e/ d e2 ^f g2 a g e2 d2 c c3 c2 e | c g2 e a2 ^f b2 ^g2 e d2 c B2 A A3 A3 ||

